X:3
T:Utrecht Horpipe compleet                 %titel
T:Quaker
M:4/4                           % type of bar  4/4 or 3/4
L:1/8                        % length of shortest note
Q:                           %tempo  Q:1/4=80
K:G             %transposed from F
|:"D7"(D2|\
P:A
"G"G2) G>(G B2)B>(B |d2) d2 B4| "Am" A2 A2 A2 A>(B|"D7"c)>B A>(G F2) (D2|
G2) G>(G B2) B>(B|"G"d2) d2 "Em" (B2 B)>B|"Am" A2 A>(A "D7" B2) B>(A|"G" G2) B2 G2:|
P:B
|:"D7" B>c |"G" d4) "D7" (B2 B)>(A|"G"B)>c B>(A (G2) G)>A| "G"B2 B>(c "Em"d2) c>(B|"Am" A2) A2 "D7"A2 (D2|
"G" G2) G2 G2 G>(A|"G" B)>A B>(c "Em" d2) c>(B| "Am" A2) A2 "D7"B2 B>A| "G" G2 B2 G2:|
%%text Quaker
P:C
[K:C]\
|:"G7" G>(c| "C" e2) ( e2 "F" d)>c B>A|"C" (3(ABA) G2 G2 G>(A|"G"B2) B2 B>A G>(B|"C" d2) c2 "G7" c>d e>(f|
"C" g2) a>(g "C7" f2) g>(e|"F" d2) A2 A2 (f2|"G7" e)>d c>(B A2) (B2 |"C" c4) c2:|
P:D
|:"D7"B>(c| "G" d2) (d2 "C" e3) (e|"G"d)>c B>(c d2) e>(d|"Am" c)>B A>(B "D7" c2) d>(c| "G" B)>A G>(A B2) B>(c|
"G"d2) (d2 "C" e3) (e |"G"d)>c B>(c d2) e>(d|"Am"c)>B A>(B "D7" c)>d e>(^f|"G" g2) G2  G2:|
